img/inst.svg

<svg width="44" height="44" viewBox="0 0 44 44" fill="none" xmlns="http://www.w3.org/2000/svg">
<path d="M44 22C44 28.0751 41.5376 33.5751 37.5564 37.5564C33.5751 41.5376 28.0751 44 22 44C15.9249 44 10.4249 41.5376 6.44365 37.5564C2.46243 33.5751 0 28.0751 0 22C0 15.9249 2.46243 10.4249 6.44365 6.44365C10.4249 2.46243 15.9249 0 22 0C28.0751 0 33.5751 2.46243 37.5564 6.44365C41.5376 10.4249 44 15.9249 44 22Z" fill="white" fill-opacity="0.1"/>
<g clip-path="url(#clip0_1_883)">
<path d="M31.9804 17.8801C31.9336 16.8174 31.7617 16.0868 31.5156 15.4537C31.2616 14.7818 30.8709 14.1801 30.359 13.68C29.8589 13.1721 29.2533 12.7774 28.5891 12.5274C27.9524 12.2813 27.2256 12.1094 26.163 12.0626C25.0924 12.0118 24.7525 12 22.0371 12C19.3217 12 18.9818 12.0118 17.9152 12.0586C16.8525 12.1055 16.1219 12.2775 15.489 12.5235C14.8169 12.7774 14.2153 13.1681 13.7152 13.68C13.2073 14.1801 12.8127 14.7857 12.5626 15.4499C12.3164 16.0868 12.1446 16.8134 12.0977 17.8761C12.0469 18.9467 12.0352 19.2866 12.0352 22.002C12.0352 24.7173 12.0469 25.0572 12.0938 26.1239C12.1406 27.1865 12.3126 27.9171 12.5588 28.5502C12.8127 29.2221 13.2073 29.8238 13.7152 30.3239C14.2153 30.8318 14.8209 31.2265 15.4851 31.4765C16.1219 31.7226 16.8486 31.8945 17.9114 31.9413C18.9779 31.9883 19.3179 31.9999 22.0333 31.9999C24.7487 31.9999 25.0885 31.9883 26.1552 31.9413C27.2179 31.8945 27.9484 31.7226 28.5813 31.4765C29.9254 30.9568 30.9881 29.8941 31.5078 28.5502C31.7538 27.9133 31.9258 27.1865 31.9727 26.1239C32.0195 25.0572 32.0313 24.7173 32.0313 22.002C32.0313 19.2866 32.0273 18.9467 31.9804 17.8801ZM30.1794 26.0457C30.1364 27.0225 29.9723 27.5499 29.8356 27.9015C29.4995 28.7728 28.808 29.4643 27.9367 29.8004C27.5851 29.9372 27.0538 30.1012 26.0809 30.1441C25.026 30.1911 24.7096 30.2027 22.0411 30.2027C19.3726 30.2027 19.0522 30.1911 18.0011 30.1441C17.0244 30.1012 16.4969 29.9372 16.1453 29.8004C15.7117 29.6402 15.317 29.3862 14.9967 29.0541C14.6646 28.7298 14.4106 28.3391 14.2504 27.9055C14.1137 27.5539 13.9496 27.0225 13.9067 26.0497C13.8597 24.9948 13.8481 24.6783 13.8481 22.0097C13.8481 19.3412 13.8597 19.0209 13.9067 17.9699C13.9496 16.9932 14.1137 16.4657 14.2504 16.1141C14.4106 15.6804 14.6646 15.2859 15.0007 14.9654C15.3248 14.6333 15.7155 14.3793 16.1493 14.2192C16.5009 14.0825 17.0323 13.9184 18.0051 13.8754C19.06 13.8285 19.3765 13.8168 22.0449 13.8168C24.7174 13.8168 25.0337 13.8285 26.0848 13.8754C27.0616 13.9184 27.589 14.0825 27.9407 14.2192C28.3742 14.3793 28.7689 14.6333 29.0893 14.9654C29.4213 15.2897 29.6753 15.6804 29.8356 16.1141C29.9723 16.4657 30.1364 16.997 30.1794 17.9699C30.2263 19.0248 30.238 19.3412 30.238 22.0097C30.238 24.6783 30.2263 24.9908 30.1794 26.0457Z" fill="white"/>
<path d="M22.0371 16.8641C19.2007 16.8641 16.8994 19.1653 16.8994 22.0019C16.8994 24.8384 19.2007 27.1396 22.0371 27.1396C24.8737 27.1396 27.1749 24.8384 27.1749 22.0019C27.1749 19.1653 24.8737 16.8641 22.0371 16.8641ZM22.0371 25.3346C20.197 25.3346 18.7044 23.8421 18.7044 22.0019C18.7044 20.1616 20.197 18.6691 22.0371 18.6691C23.8774 18.6691 25.3698 20.1616 25.3698 22.0019C25.3698 23.8421 23.8774 25.3346 22.0371 25.3346Z" fill="white"/>
<path d="M28.5775 16.6611C28.5775 17.3235 28.0404 17.8605 27.3779 17.8605C26.7155 17.8605 26.1785 17.3235 26.1785 16.6611C26.1785 15.9986 26.7155 15.4617 27.3779 15.4617C28.0404 15.4617 28.5775 15.9986 28.5775 16.6611Z" fill="white"/>
</g>
<defs>
<clipPath id="clip0_1_883">
<rect width="20" height="20" fill="white" transform="translate(12 12)"/>
</clipPath>
</defs>
</svg>

<svg width="44" height="44" fill="none" xmlns="http://www.w3.org/2000/svg"><path d="M44 22a21.931 21.931 0 0 1-6.444 15.556A21.931 21.931 0 0 1 22 44a21.931 21.931 0 0 1-15.556-6.444A21.931 21.931 0 0 1 0 22 21.931 21.931 0 0 1 6.444 6.444 21.931 21.931 0 0 1 22 0a21.931 21.931 0 0 1 15.556 6.444A21.931 21.931 0 0 1 44 22Z" fill="#fff" fill-opacity=".1"/><g clip-path="url(#a)" fill="#fff"><path d="M31.98 17.88c-.046-1.063-.218-1.793-.464-2.426a4.881 4.881 0 0 0-1.157-1.774 4.922 4.922 0 0 0-1.77-1.153c-.637-.246-1.363-.418-2.426-.464-1.07-.051-1.41-.063-4.126-.063-2.715 0-3.055.012-4.122.059-1.063.046-1.793.219-2.426.465a4.879 4.879 0 0 0-1.774 1.156 4.923 4.923 0 0 0-1.152 1.77c-.247.637-.418 1.363-.465 2.426-.051 1.07-.063 1.41-.063 4.126 0 2.715.012 3.055.059 4.122.047 1.063.219 1.793.465 2.426a4.932 4.932 0 0 0 1.156 1.774c.5.508 1.106.902 1.77 1.152.637.247 1.364.419 2.426.465 1.067.047 1.407.059 4.122.059 2.716 0 3.055-.012 4.122-.059 1.063-.046 1.793-.218 2.426-.464a5.116 5.116 0 0 0 2.927-2.927c.246-.637.418-1.364.465-2.426.047-1.067.058-1.407.058-4.122s-.004-3.055-.05-4.122Zm-1.8 8.166c-.044.977-.208 1.504-.344 1.855a3.318 3.318 0 0 1-1.9 1.9c-.35.136-.882.3-1.855.343-1.055.047-1.371.059-4.04.059-2.668 0-2.989-.012-4.04-.059-.977-.043-1.504-.207-1.856-.344a3.076 3.076 0 0 1-1.148-.746 3.109 3.109 0 0 1-.747-1.148c-.136-.352-.3-.883-.343-1.856-.047-1.055-.059-1.372-.059-4.04 0-2.669.012-2.99.059-4.04.043-.977.207-1.504.343-1.856a3.04 3.04 0 0 1 .75-1.149 3.104 3.104 0 0 1 1.15-.746c.35-.136.882-.3 1.855-.344 1.055-.046 1.372-.058 4.04-.058 2.672 0 2.989.011 4.04.058.977.043 1.504.207 1.856.344.433.16.828.414 1.148.746.332.325.586.715.747 1.15.136.35.3.882.343 1.855.047 1.055.059 1.371.059 4.04 0 2.668-.012 2.98-.059 4.036Z"/><path d="M22.037 16.864a5.139 5.139 0 0 0-5.138 5.138 5.139 5.139 0 1 0 5.138-5.138Zm0 8.47a3.333 3.333 0 1 1 .001-6.666 3.333 3.333 0 0 1 0 6.667ZM28.578 16.661a1.2 1.2 0 1 1-2.4 0 1.2 1.2 0 0 1 2.4 0Z"/></g><defs><clipPath id="a"><path fill="#fff" transform="translate(12 12)" d="M0 0h20v20H0z"/></clipPath></defs></svg>
